assets/svgs/people_in_circle.svg

<svg viewBox="0 0 1024 1024" xmlns="http://www.w3.org/2000/svg"><path d="m512 0c-281.6 0-512 230.4-512 512s230.4 512 512 512 512-230.4 512-512-230.4-512-512-512zm179.2 928c-57.6 25.6-115.2 38.4-179.2 38.4s-121.6-12.8-179.2-38.4c-51.2-19.2-102.4-51.2-140.8-96 57.6-128 179.2-211.2 320-211.2s268.8 83.2 320 211.2c-38.4 44.8-89.6 76.8-140.8 96zm-179.2-390.4c-83.2 0-147.2-64-147.2-147.2s64-147.2 147.2-147.2 147.2 64 147.2 147.2-64 147.2-147.2 147.2zm364.8 243.2c-32-57.6-76.8-108.8-128-147.2-38.4-32-89.6-51.2-134.4-64 64-32 108.8-102.4 108.8-179.2 0-115.2-89.6-204.8-204.8-204.8s-204.8 89.6-204.8 204.8c0 76.8 44.8 147.2 108.8 179.2-51.2 12.8-96 32-140.8 64-57.6 38.4-102.4 89.6-134.4 153.6l-57.6-96c-19.2-57.6-32-115.2-32-179.2s12.8-121.6 38.4-179.2c19.2-51.2 51.2-102.4 96-140.8s89.6-76.8 147.2-96c51.2-25.6 108.8-38.4 172.8-38.4s121.6 12.8 179.2 38.4c51.2 19.2 102.4 51.2 140.8 96 44.8 44.8 76.8 89.6 96 147.2 25.6 51.2 38.4 108.8 38.4 172.8s-12.8 121.6-38.4 179.2c-12.8 32-32 64-51.2 89.6z" fill="#333"/></svg>

<svg xmlns="http://www.w3.org/2000/svg" viewBox="0 0 1024 1024" version="1.1"><path d="M512 0C230.4 0 0 230.4 0 512s230.4 512 512 512 512-230.4 512-512S793.6 0 512 0z m179.2 928C633.6 953.6 576 966.4 512 966.4S390.4 953.6 332.8 928c-51.2-19.2-102.4-51.2-140.8-96 57.6-128 179.2-211.2 320-211.2S780.8 704 832 832c-38.4 44.8-89.6 76.8-140.8 96zM512 537.6c-83.2 0-147.2-64-147.2-147.2s64-147.2 147.2-147.2c83.2 0 147.2 64 147.2 147.2s-64 147.2-147.2 147.2z m364.8 243.2c-32-57.6-76.8-108.8-128-147.2-38.4-32-89.6-51.2-134.4-64 64-32 108.8-102.4 108.8-179.2 0-115.2-89.6-204.8-204.8-204.8-115.2 0-204.8 89.6-204.8 204.8 0 76.8 44.8 147.2 108.8 179.2-51.2 12.8-96 32-140.8 64C224 672 179.2 723.2 147.2 787.2l-57.6-96c-19.2-57.6-32-115.2-32-179.2 0-64 12.8-121.6 38.4-179.2 19.2-51.2 51.2-102.4 96-140.8s89.6-76.8 147.2-96C390.4 70.4 448 57.6 512 57.6S633.6 70.4 691.2 96c51.2 19.2 102.4 51.2 140.8 96 44.8 44.8 76.8 89.6 96 147.2 25.6 51.2 38.4 108.8 38.4 172.8S953.6 633.6 928 691.2c-12.8 32-32 64-51.2 89.6z" fill="#333333" p-id="8426"></path></svg>
